X:492
T: "Verzweiflung"
N: Z1172
O: Europa, Mitteleuropa, Deutschland, Niederrhein
R: Liebes - Lied, Abschieds - Lied
M: 2/4
L: 1/16
K: Bb
 | B2B2A2c2 | B2G2F2z2 |
d2d2c2d2 | e2d2c2z2 |
B2B2A2c2 | B2G2F2z2 |
d2d2c2d2 | e2d2c2
FF | BcdBFAcc | BcdBFAc
c | e3cd3B | dcBAB2z2

@@@ Tune index: 10250
